!!!OTL: "Eine kleine Nachtmusik" (Fragment) für Streicher, 1. Satz, KV 525/01
!!!system-decoration: [(s1,s2,s3,s4)]
**kern	**kern	**kern	**kern	**dynam	**kern	**kern	**kern	**kern	**dynam	**kern	**kern	**kern	**kern	**dynam	**kern	**kern	**kern	**kern	**dynam
*part4	*part4	*part4	*part4	*part4	*part3	*part3	*part3	*part3	*part3	*part2	*part2	*part2	*part2	*part2	*part1	*part1	*part1	*part1	*part1
*staff16	*staff15	*staff14	*staff13	*	*staff12	*staff11	*staff10	*staff9	*	*staff8	*staff7	*staff6	*staff5	*	*staff4	*staff3	*staff2	*staff1	*
*I"Violoncello e Basso	*	*	*	*	*I"Viola	*	*	*	*	*I"Violino II	*	*	*	*	*I"Violino I	*	*	*	*
*clefF4	*	*clefC3	*	*clefG2	*	*clefG2	*
*k[f#]	*	*k[f#]	*	*k[f#]	*	*k[f#]	*
*M4/4	*	*M4/4	*	*M4/4	*	*M4/4	*
4G	.	4g	.	4gg 4b 4d	.	4gg 4b 4d	.
8r	.	8r	.	8r	.	8r	.
8D	.	8d	.	8dd	.	8dd	.
4G	.	4g	.	4gg	.	4gg	.
8r	.	8r	.	8r	.	8r	.
8D	.	8d	.	8dd	.	8dd	.
=2	=2	=2	=2	=2	=2	=2	=2
8GL	.	8gL	.	8ggL	.	8ggL	.
8D	.	8d	.	8dd	.	8dd	.
8G	.	8g	.	8gg	.	8gg	.
8BJ	.	8bJ	.	8bbJ	.	8bbJ	.
4d	.	4dd	.	4ddd	.	4ddd	.
4r	.	4r	.	4r	.	4r	.
=3	=3	=3	=3	=3	=3	=3	=3
4c	.	4cc	.	4ccc	.	4ccc	.
8r	.	8r	.	8r	.	8r	.
8A	.	8a	.	8aa	.	8aa	.
4c	.	4cc	.	4ccc	.	4ccc	.
8r	.	8r	.	8r	.	8r	.
8A	.	8a	.	8aa	.	8aa	.
=4	=4	=4	=4	=4	=4	=4	=4
8cL	.	8ccL	.	8cccL	.	8cccL	.
8A	.	8a	.	8aa	.	8aa	.
8F#y	.	8f#y	.	8ff#y	.	8ff#y	.
8AJ	.	8aJ	.	8aaJ	.	8aaJ	.
4D	.	4d	.	4dd	.	4dd	.
4r	.	4r	.	4r	.	4r	.
!!LO:LB
=5	=5	=5	=5	=5	=5	=5	=5
8GL	.	8gL	.	16dL 16B	.	8gg 8b 8d	.
.	.	.	.	16d 16B	.	.	.
8G	.	8g	.	16d 16B	.	8r	.
.	.	.	.	16dJ 16B	.	.	.
8G	.	8g	.	16dL 16B	.	4.gg	.
.	.	.	.	16d 16B	.	.	.
8GJ	.	8gJ	.	16d 16B	.	.	.
.	.	.	.	16dJ 16B	.	.	.
8GL	.	8gL	.	16dL 16B	.	.	.
.	.	.	.	16d 16B	.	.	.
8G	.	8g	.	16d 16B	.	(8bbL	.
.	.	.	.	16dJ 16B	.	.	.
8G	.	8g	.	16dL 16B	.	8aa)	.
.	.	.	.	16d 16B	.	.	.
8GJ	.	8gJ	.	16d 16B	.	8ggJ	.
.	.	.	.	16dJ 16B	.	.	.
=6	=6	=6	=6	=6	=6	=6	=6
8GL	.	8aL	.	16dL 16c	.	(8ggLT	.
.	.	.	.	16d 16c	.	.	.
8G	.	8a	.	16d 16c	.	8ff#yJ)	.
.	.	.	.	16dJ 16c	.	.	.
8G	.	8a	.	16dL 16c	.	4.ff#y	.
.	.	.	.	16d 16c	.	.	.
8GJ	.	8aJ	.	16d 16c	.	.	.
.	.	.	.	16dJ 16c	.	.	.
8GL	.	(8aL	.	16dL 16c	.	.	.
.	.	.	.	16d 16c	.	.	.
8G	.	8cc)	.	16d 16c	.	(8aaL	.
.	.	.	.	16dJ 16c	.	.	.
8G	.	(8f#y	.	16dL 16c	.	8ccc)	.
.	.	.	.	16d 16c	.	.	.
8GJ	.	8aJ)	.	16d 16c	.	8ff#yJ	.
.	.	.	.	16dJ 16c	.	.	.
=7	=7	=7	=7	=7	=7	=7	=7
8GL	.	8gL	.	16dL 16B	.	(8aaL	.
.	.	.	.	16d 16B	.	.	.
8G	.	8g	.	16d 16B	.	8ggJ)	.
.	.	.	.	16dJ 16B	.	.	.
8G	.	8g	.	16dL 16B	.	4.gg	.
.	.	.	.	16d 16B	.	.	.
8GJ	.	8gJ	.	16d 16B	.	.	.
.	.	.	.	16dJ 16B	.	.	.
8GL	.	8gL	.	16dL 16B	.	.	.
.	.	.	.	16d 16B	.	.	.
8G	.	8g	.	16d 16B	.	(8bbL	.
.	.	.	.	16dJ 16B	.	.	.
8G	.	8g	.	16dL 16B	.	8aa)	.
.	.	.	.	16d 16B	.	.	.
8GJ	.	8gJ	.	16d 16B	.	8ggJ	.
.	.	.	.	16dJ 16B	.	.	.
!!LO:LB
=8	=8	=8	=8	=8	=8	=8	=8
8GL	.	8aL	.	16dL 16c	.	(8ggLT	.
.	.	.	.	16d 16c	.	.	.
8G	.	8a	.	16d 16c	.	8ff#yJ)	.
.	.	.	.	16dJ 16c	.	.	.
8G	.	8a	.	16dL 16c	.	4.ff#y	.
.	.	.	.	16d 16c	.	.	.
8GJ	.	8aJ	.	16d 16c	.	.	.
.	.	.	.	16dJ 16c	.	.	.
8GL	.	(8aL	.	16dL 16c	.	.	.
.	.	.	.	16d 16c	.	.	.
8G	.	8cc)	.	16d 16c	.	(8aaL	.
.	.	.	.	16dJ 16c	.	.	.
8G	.	(8f#y	.	16dL 16c	.	8ccc)	.
.	.	.	.	16d 16c	.	.	.
8GJ	.	8aJ)	.	16d 16c	.	8ff#yJ	.
.	.	.	.	16dJ 16c	.	.	.
=9	=9	=9	=9	=9	=9	=9	=9
8GL	.	16dL	.	4d 4B	.	8gg'L	.
.	.	16d	.	.	.	.	.
8G	.	16d	.	.	.	8gg'J	.
.	.	16dJ	.	.	.	.	.
.	.	.	.	.	.	(<16qgg	.
8A	.	16dL	.	8ccL	.	(8ff#yL)	.
.	.	16d	.	.	.	.	.
8AJ	.	16d	.	8ccJ	.	16ee	.
.	.	16dJ	.	.	.	16ff#yJ)	.
8BL	.	16dL	.	8ddL	.	8ggL	.
.	.	16d	.	.	.	.	.
8B	.	16d	.	8ddJ	.	8ggJ	.
.	.	16dJ	.	.	.	.	.
.	.	.	.	.	.	(<16qbb	.
8F#y	.	16dL	.	(8ccL	.	(8aaL)	.
.	.	16d	.	.	.	.	.
8F#yJ	.	16d	.	16b	.	16gg	.
.	.	16dJ	.	16aJ)	.	16aaJ)	.
=10	=10	=10	=10	=10	=10	=10	=10
8GL	.	16dL	.	8gL	.	8bbL	.
.	.	16d	.	.	.	.	.
8G	.	16d	.	8g	.	8bbJ	.
.	.	16dJ	.	.	.	.	.
.	.	.	.	.	.	(<16qddd	.
8A	.	16dL	.	8f#y	.	(8cccL)	.
.	.	16d	.	.	.	.	.
8AJ	.	16d	.	8f#yJ	.	16bb	.
.	.	16dJ	.	.	.	16cccJ	.
4B	.	4d	.	4g	.	4ddd)	.
4r	.	4r	.	4r	.	4r	.
=11	=11	=11	=11	=11	=11	=11	=11
1r	.	1r	.	(2b	.	(2dd	.
.	.	.	.	2cc)	.	2ee)	.
!!LO:LB
=12	=12	=12	=12	=12	=12	=12	=12
.	.	.	.	(<16qb	.	.	.
.	.	.	.	.	.	(<16qdd	.
(2D	.	(2F#y	.	4a)	.	4cc)	.
.	.	.	.	4a	.	4cc	.
.	.	.	.	(<16qa	.	.	.
.	.	.	.	.	.	(<16qcc	.
2E)	.	2G)	.	4g)	.	4b)	.
.	.	.	.	4g	.	4b	.
=13	=13	=13	=13	=13	=13	=13	=13
.	.	.	.	.	.	(<16qb	.
4C	.	4c	.	4e	.	4a)	.
4C	.	4c	.	4e	.	4a	.
4D	.	4A	.	4c	.	(8gL	.
.	.	.	.	.	.	8f#y)	.
4D	.	4D	.	4A	.	8e'	.
.	.	.	.	.	.	8f#y'J	.
=14	=14	=14	=14	=14	=14	=14	=14
8BB	.	8D	.	8d	.	8g	.
8r	.	8r	.	8r	.	8r	.
8D	.	8d	.	8f#y	.	8a	.
8r	.	8r	.	8r	.	8r	.
4G	.	4d	.	8g	.	8b	.
.	.	.	.	8r	.	8r	.
4r	.	4r	.	4r	.	4r	.
=15	=15	=15	=15	=15	=15	=15	=15
1r	.	1r	.	(2b	.	(2dd	.
.	.	.	.	2cc)	.	2ee)	.
=16	=16	=16	=16	=16	=16	=16	=16
(2D	.	(2f#y	.	(8bL	.	(8ddL	.
.	.	.	.	8a)	.	8cc)	.
.	.	.	.	8a'	.	8cc'	.
.	.	.	.	8a'J	.	8cc'J	.
2E)	.	2g)	.	(8aL	.	(8ccL	.
.	.	.	.	8g)	.	8b)	.
.	.	.	.	8g'	.	8b'	.
.	.	.	.	8g'J	.	8b'J	.
=17	=17	=17	=17	=17	=17	=17	=17
4C	.	4c	.	4e	.	(8bL	.
.	.	.	.	.	.	8a)	.
4C	.	8cL	.	8eL	.	8a'	.
.	.	8cJ	.	8eJ	.	8a'J	.
4D	.	4A	.	4c	.	(8gL	.
.	.	.	.	.	.	8f#y	.
4D	.	8AL	.	8cL	.	8e	.
.	.	8AJ	.	8cJ	.	8f#yJ)	.
=18	=18	=18	=18	=18	=18	=18	=18
8GL	.	8GL	.	[2B	.	[2g [2G	.
8G	.	8G	.	.	.	.	.
8G	.	8G	.	.	.	.	.
8GJ	.	8GJ	.	.	.	.	.
8GL	.	8GL	.	8BL]	.	8gL] 8G]	.
8G	.	8G	.	(16BT	.	(16gT	.
.	.	.	.	32A	.	32f#y	.
.	.	.	.	32BJ	.	32gJ	.
8G	.	8G	.	8cL	.	8aL	.
8GJ	.	8GJ	.	8AJ)	.	8f#yJ)	.
=19	=19	=19	=19	=19	=19	=19	=19
8GL	.	8GL	.	[2g	.	[2b	.
8G	.	8G	.	.	.	.	.
8G	.	8G	.	.	.	.	.
8GJ	.	8GJ	.	.	.	.	.
8GL	.	8GL	.	8gL]	.	8bL]	.
8G	.	8G	.	(16gT	.	(<16bT	.
.	.	.	.	32f#y	.	32a	.
.	.	.	.	32gJ	.	32bJ	.
8G	.	8G	.	8aL	.	8ccL	.
8GJ	.	8GJ	.	8f#yJ)	.	8aJ)	.
=20	=20	=20	=20	=20	=20	=20	=20
8GL	cre	8GL	cre	16bL	cre	16ddL	cre
.	.	.	.	16b	.	16dd	.
8G	.	8g	.	16b	.	16dd	.
.	.	.	.	16bJ	.	16ddJ	.
8G	.	8g	.	16bL	.	16ddL	.
.	.	.	.	16b	.	16dd	.
8GJ	.	8gJ	.	16b	.	16dd	.
.	.	.	.	16bJ	.	16ddJ	.
8GL	.	8gL	.	16ccL	.	16eeL	.
.	.	.	.	16cc	.	16ee	.
8G	.	8g	.	16cc	.	16ee	.
.	.	.	.	16ccJ	.	16eeJ	.
8G	.	8a	.	16ccL	.	16ff#yL	.
.	.	.	.	16cc	.	16ff#y	.
8GJ	.	8aJ	.	16cc	.	16ff#y	.
.	.	.	.	16ccJ	.	16ff#yJ	.
=21	=21	=21	=21	=21	=21	=21	=21
8GL	do	8gL	.	16bL	.	16ggL	do
.	.	.	.	16b	.	16gg	.
8G	.	8g	.	16b	.	16gg	.
.	.	.	.	16bJ	.	16ggJ	.
8F#y	.	8f#y	.	16ddL	.	16aaL	.
.	.	.	.	16dd	.	16aa	.
8F#yJ	.	8f#yJ	.	16dd	.	16aa	.
.	.	.	.	16ddJ	.	16aaJ	.
8GL	.	8gL	.	16ddL	.	16bbL	.
.	.	.	.	16dd	.	16bb	.
8G	.	8g	.	16dd	.	16bb	.
.	.	.	.	16ddJ	.	16bbJ	.
8E	.	8e	.	16ggL	.	16ccc#L	.
.	.	.	.	16gg	.	16ccc#y	.
8EJ	.	8eJ	.	16gg	.	16ccc#y	.
.	.	.	.	16ggJ	.	16ccc#yJ	.
!!LO:LB
=22	=22	=22	=22	=22	=22	=22	=22
8DL	.	16aL 16d	.	16ff#yL	.	(4.ddd	.
.	.	16a 16d	.	16ff#y	.	.	.
8D	.	16a 16d	.	16ff#y	.	.	.
.	.	16aJ 16d	.	16ff#yJ	.	.	.
8D	.	16aL 16d	.	16ff#yL	.	.	.
.	.	16a 16d	.	16ff#y	.	.	.
8DJ	.	16a 16d	.	16ff#y	.	8aa)	.
.	.	16aJ 16d	.	16ff#yJ	.	.	.
8DL	.	16aL 16e	.	16ggL	.	(8.ccc#L	.
.	.	16a 16e	.	16gg	.	.	.
8D	.	16a 16e	.	16gg	.	.	.
.	.	16aJ 16e	.	16ggJ	.	16aa)	.
8D	.	16aL 16e	.	16ggL	.	(8.ccc#y	.
.	.	16a 16e	.	16gg	.	.	.
8DJ	.	16a 16e	.	16gg	.	.	.
.	.	16aJ 16e	.	16ggJ	.	16aaJ)	.
=23	=23	=23	=23	=23	=23	=23	=23
8DL	.	16aL 16d	.	16ff#yL	.	(4.ddd	.
.	.	16a 16d	.	16ff#y	.	.	.
8D	.	16a 16d	.	16ff#y	.	.	.
.	.	16aJ 16d	.	16ff#yJ	.	.	.
8D	.	16aL 16d	.	16ff#yL	.	.	.
.	.	16a 16d	.	16ff#y	.	.	.
8DJ	.	16a 16d	.	16ff#y	.	8aa)	.
.	.	16aJ 16d	.	16ff#yJ	.	.	.
8DL	.	16aL 16e	.	16ggL	.	(8.ccc#L	.
.	.	16a 16e	.	16gg	.	.	.
8D	.	16a 16e	.	16gg	.	.	.
.	.	16aJ 16e	.	16ggJ	.	16aa)	.
8D	.	16aL 16e	.	16ggL	.	(8.ccc#y	.
.	.	16a 16e	.	16gg	.	.	.
8DJ	.	16a 16e	.	16gg	.	.	.
.	.	16aJ 16e	.	16ggJ	.	16aaJ)	.
=24	=24	=24	=24	=24	=24	=24	=24
8DL	.	8f#yL	.	8ff#y 8dd	.	8ddd	.
8E	.	8g	.	4ff#y 4dd	.	4ddd 4ff#y	.
8F#y	.	8a	.	.	.	.	.
8EJ	.	8gJ	.	4ff#y 4dd	.	4ddd 4ff#y	.
8DL	.	8f#yL	.	.	.	.	.
8E	.	8g	.	4ff#y 4dd	.	4ddd 4ff#y	.
8F#y	.	8a	.	.	.	.	.
8DJ	.	8f#yJ	.	(8ff#y [8dd	.	[8ddd (8ff#y	.
!!LO:LB
=25	=25	=25	=25	=25	=25	=25	=25
8GL	.	8bL	.	8ee) 8dd]	.	8ddd] 8ee)	.
8A	.	8a	.	4ee 4dd	.	4ddd 4ee	.
8B	.	8g	.	.	.	.	.
8AJ	.	8aJ	.	4ee 4dd	.	4ddd 4ee	.
8GL	.	8bL	.	.	.	.	.
8A	.	8a	.	4ee 4dd	.	4ddd 4ee	.
8B	.	8g#	.	.	.	.	.
8G#J	.	8bJ	.	8ee 8dd	.	8ddd 8ee	.
=26	=26	=26	=26	=26	=26	=26	=26
8AL	.	8aL	.	16eeL 16cc#	.	8ccc#L 8ee	.
.	.	.	.	16ee 16cc#y	.	.	.
8A	.	8a	.	16ee 16cc#y	.	8aa	.
.	.	.	.	16eeJ 16cc#y	.	.	.
8A	.	8a	.	16ff#yL 16dd	.	8ddd	.
.	.	.	.	16ff#y 16dd	.	.	.
8AJ	.	8aJ	.	16ff#y 16dd	.	8aaJ	.
.	.	.	.	16ff#yJ 16dd	.	.	.
8AL	.	8aL	.	16eeL 16cc#y	.	8ccc#yL	.
.	.	.	.	16ee 16cc#y	.	.	.
8A	.	8a	.	16ee 16cc#y	.	8aa	.
.	.	.	.	16eeJ 16cc#y	.	.	.
8A	.	8a	.	16ff#yL 16dd	.	8ddd	.
.	.	.	.	16ff#y 16dd	.	.	.
8AJ	.	8aJ	.	16ff#y 16dd	.	8aaJ	.
.	.	.	.	16ff#yJ 16dd	.	.	.
=27	=27	=27	=27	=27	=27	=27	=27
8AL	.	8aL	.	8eeL 8cc#	.	8ccc#L	.
8AA	.	8A	.	8a	.	8a	.
8AA	.	8A	.	8a	.	8a	.
8AAJ	.	8AJ	.	8aJ	.	8aJ	.
4AA	.	4A	.	4a	.	4a	.
4r	.	4r	.	4r	.	4r	.
=28	=28	=28	=28	=28	=28	=28	=28
2r	.	2r	.	(4.a	.	(4.aa	.
.	.	.	.	24gL	.	24ggL	.
.	.	.	.	24f#y	.	24ff#y	.
.	.	.	.	24eJ	.	24eeJ	.
4r	.	4r	.	8d)	.	8dd)	.
.	.	.	.	8r	.	8r	.
8D#	.	8f#y	.	8b	.	8bb	.
8r	.	8r	.	8r	.	8r	.
!!LO:LB
=29	=29	=29	=29	=29	=29	=29	=29
8E	.	8B	.	8g	.	8gg	.
8r	.	8r	.	8r	.	8r	.
8Dn	.	8g	.	8e	.	8ee	.
8r	.	8r	.	8r	.	8r	.
8C#	.	8e	.	8a	.	8aa	.
8r	.	8r	.	8r	.	8r	.
8AA	.	8c#	.	4r	.	4r	.
8r	.	8r	.	.	.	.	.
=30	=30	=30	=30	=30	=30	=30	=30
4r	.	4r	.	(4.f#y	.	(4.ff#y	.
(4AA#	.	(4e	.	.	.	.	.
.	.	.	.	24eL	.	24eeL	.
.	.	.	.	24d	.	24dd	.
.	.	.	.	24c#J	.	24cc#J	.
8BB)	.	8d)	.	8B)	.	8b)	.
8r	.	8r	.	8r	.	8r	.
8GG	.	8e	.	8g	.	8gg	.
8r	.	8r	.	8r	.	8r	.
=31	=31	=31	=31	=31	=31	=31	=31
4AAn	.	(2d	.	(2f#y	.	(2ff#y	.
(4.A	.	.	.	.	.	.	.
.	.	4c#)	.	4e)	.	4ee)	.
8G#L	.	.	.	.	.	.	.
8Gn	.	4r	.	4r	.	4r	.
8EJ	.	.	.	.	.	.	.
=32	=32	=32	=32	=32	=32	=32	=32
8D)	.	4r	.	(4.a	.	8r	.
8r	.	.	.	.	.	8aa'L	.
8E	.	(4c#	.	.	.	8aa'	.
8r	.	.	.	24gL	.	8aa'J	.
.	.	.	.	24f#y	.	.	.
.	.	.	.	24eJ	.	.	.
8F#y	.	8d)	.	8d)	.	8aa'L	.
8r	.	8r	.	8r	.	8aa'	.
8D#	.	8f#y	.	8b	.	8aa'	.
8r	.	8r	.	8r	.	8aa'J	.
=33	=33	=33	=33	=33	=33	=33	=33
8E	.	8B	.	8g	.	8aa'L	.
8r	.	8r	.	8r	.	8aa'	.
8Dn	.	8G	.	8e	.	8aa'	.
8r	.	8r	.	8r	.	8aa'J	.
8C#	.	4E	.	4a	.	8aa'L	.
8r	.	.	.	.	.	8aa'	.
8AA	.	8r	.	8r	.	8bb'	.
8r	.	8e	.	8g	.	8ccc#'J	.
=34	=34	=34	=34	=34	=34	=34	=34
8BB	.	(8eL	.	(8gL	.	(8cccL	.
8r	.	8dJ)	.	8f#yJ)	.	8dddJ)	.
8G	.	4r	.	8r	.	8r	.
8r	.	.	.	8gg	.	8bb	.
8A	.	2r	.	(8ggL	.	(8bbL	.
8r	.	.	.	8ff#yJ)	.	8aaJ)	.
8AA	.	.	.	8r	.	8r	.
8r	.	.	.	8g	.	8cc#	.
=35	=35	=35	=35	=35	=35	=35	=35
4D	.	8dL	.	8f#yL	.	4dd	.
.	.	8d	.	8f#y	.	.	.
4r	.	8e	.	8g	.	8r	.
.	.	8eJ	.	8gJ	.	8aa	.
2r	.	8f#yL	.	8aL	.	(8dddL	.
.	.	8f#y	.	8a	.	8ccc#	.
.	.	8d	.	8f#y	.	8bb	.
.	.	8dJ	.	8f#yJ	.	8aaJ)	.
=36	=36	=36	=36	=36	=36	=36	=36
4AA	.	8c#L	.	8eL	.	(8bbLT	.
.	.	8c#y	.	8e	.	8aaJ)	.
4r	.	8d	.	8f#y	.	8r	.
.	.	8dJ	.	8f#yJ	.	8aa	.
2r	.	8eL	.	8gL	.	8aa'L	.
.	.	8e	.	8g	.	8aa'	.
.	.	8c#y	.	8e	.	8aa'	.
.	.	8c#yJ	.	8eJ	.	8aa'J	.
=37	=37	=37	=37	=37	=37	=37	=37
4D	.	8dL	.	8f#yL	.	(8bbLT	.
.	.	8d	.	8f#y	.	8aaJ)	.
4r	.	8e	.	8g	.	8r	.
.	.	8eJ	.	8gJ	.	8aa	.
2r	.	8f#yL	.	8aL	.	(8dddL	.
.	.	8f#y	.	8a	.	8ccc#	.
.	.	8d	.	8f#y	.	8bb	.
.	.	8dJ	.	8f#yJ	.	8aaJ)	.
=38	=38	=38	=38	=38	=38	=38	=38
4AA	.	8c#L	.	8eL	.	(8bbLT	.
.	.	8c#y	.	8e	.	8aaJ)	.
4r	.	8d	.	8f#y	.	8r	.
.	.	8dJ	.	8f#yJ	.	8aa	.
2r	.	8eL	.	8gL	.	8aa'L	.
.	.	8e	.	8g	.	8aa'	.
.	.	8c#y	.	8e	.	8aa'	.
.	.	8c#yJ	.	8eJ	.	8aa'J	.
=39	=39	=39	=39	=39	=39	=39	=39
8r	.	8dL	.	4f#y	.	(8bbLT	.
8DL	.	8d	.	.	.	8aaJ)	.
8F#y	.	8f#y	.	4r	.	4r	.
8EJ	.	8eJ	.	.	.	.	.
8D#L	.	8d#L	.	(2ff#y 2b	.	(4.bb 4.b	.
8BB	.	8B	.	.	.	.	.
8C#	.	8c#	.	.	.	.	.
8D#yJ	.	8d#yJ	.	.	.	24aaL	.
.	.	.	.	.	.	24gg	.
.	.	.	.	.	.	24ff#yJ	.
!!LO:LB
=40	=40	=40	=40	=40	=40	=40	=40
8EL	.	8eL	.	4ee)	.	4gg)	.
8G	.	8g	.	.	.	.	.
8E	.	8e	.	4r	.	4r	.
8DnJ	.	8dnJ	.	.	.	.	.
8C#L	.	8c#L	.	(2ee 2a	.	(4.aa 4.a	.
8AA	.	8A	.	.	.	.	.
8BB	.	8B	.	.	.	.	.
8C#yJ	.	8c#yJ	.	.	.	24ggL	.
.	.	.	.	.	.	24ff#y	.
.	.	.	.	.	.	24eeJ	.
=41	=41	=41	=41	=41	=41	=41	=41
8D'L	.	8dL	.	8ddL)	.	4ff#y)	.
8D'	.	8dd	.	8ff#y'	.	.	.
8E'	.	8dd	.	8gg'	.	4r	.
8F#y'J	.	8ddJ	.	8aa'J	.	.	.
8GL	.	8ddL	.	(8ggL	.	(8bbL	.
8G	.	8dd	.	16aa	.	16ccc#	.
.	.	.	.	16bbJ	.	16dddJ	.
8G	.	8dd	.	8aaL)	.	8ccc#yL)	.
8GJ	.	8ddJ	.	8ggJ	.	8bbJ	.
=42	=42	=42	=42	=42	=42	=42	=42
8AL	.	(8ddL	.	(8ggL	.	(8bbL	.
8A	.	8a)	.	8ff#y)	.	8aa)	.
8A	.	8a	.	8dd	.	8ff#y	.
8AJ	.	8aJ	.	8ff#yJ	.	8aaJ	.
8AAL	.	8aL	.	(8ff#yL	.	(8aaL	.
8AA	.	8a	.	8ee)	.	8gg)	.
8AA	.	8a	.	8dd	.	8ff#y	.
8AAJ	.	8gJ	.	8cc#J	.	8eeJ	.
=43	=43	=43	=43	=43	=43	=43	=43
4D	.	8f#yL	.	8ddL	.	4dd	.
.	.	8d	.	8f#y	.	.	.
4r	.	8e	.	8g	.	8r	.
.	.	8eJ	.	8gJ	.	8aa	.
2r	.	8f#yL	.	8aL	.	(8dddL	.
.	.	8f#y	.	8a	.	8ccc#	.
.	.	8d	.	8f#y	.	8bb	.
.	.	8dJ	.	8f#yJ	.	8aaJ)	.
=44	=44	=44	=44	=44	=44	=44	=44
4AA	.	8c#L	.	8eL	.	(8bbLT	.
.	.	8c#y	.	8e	.	8aaJ)	.
4r	.	8d	.	8f#y	.	8r	.
.	.	8dJ	.	8f#yJ	.	8aa	.
2r	.	8eL	.	8gL	.	8aaL	.
.	.	8e	.	8g	.	8aa	.
.	.	8c#y	.	8e	.	8aa	.
.	.	8c#yJ	.	8eJ	.	8aaJ	.
!!LO:LB
=45	=45	=45	=45	=45	=45	=45	=45
4D	.	8dL	.	8f#yL	.	(8bbLT	.
.	.	8d	.	8f#y	.	8aaJ)	.
4r	.	8e	.	8g	.	8r	.
.	.	8eJ	.	8gJ	.	8aa	.
2r	.	8f#yL	.	8aL	.	(8dddL	.
.	.	8f#y	.	8a	.	8ccc#	.
.	.	8d	.	8f#y	.	8bb	.
.	.	8dJ	.	8f#yJ	.	8aaJ)	.
=46	=46	=46	=46	=46	=46	=46	=46
4AA	.	8c#L	.	8eL	.	(8bbLT	.
.	.	8c#y	.	8e	.	8aaJ)	.
4r	.	8d	.	8f#y	.	8r	.
.	.	8dJ	.	8f#yJ	.	8aa	.
2r	.	8eL	.	8gL	.	8aaL	.
.	.	8e	.	8g	.	8aa	.
.	.	8c#y	.	8e	.	8aa	.
.	.	8c#yJ	.	8eJ	.	8aaJ	.
=47	=47	=47	=47	=47	=47	=47	=47
8r	.	8dL	.	4f#y	.	(8bbLT	.
8DL	.	8d	.	.	.	8aaJ)	.
8F#y	.	8f#y	.	4r	.	4r	.
8EJ	.	8eJ	.	.	.	.	.
8D#L	.	8d#L	.	(2ff#y 2b	.	(4.bb 4.b	.
8BB	.	8B	.	.	.	.	.
8C#	.	8c#	.	.	.	.	.
8D#yJ	.	8d#yJ	.	.	.	24aaL	.
.	.	.	.	.	.	24gg	.
.	.	.	.	.	.	24ff#yJ	.
=48	=48	=48	=48	=48	=48	=48	=48
8EL	.	8eL	.	4ee)	.	4gg)	.
8G	.	8g	.	.	.	.	.
8E	.	8e	.	4r	.	4r	.
8DnJ	.	8dnJ	.	.	.	.	.
8C#L	.	8c#L	.	(2ee 2a	.	(4.aa 4.a	.
8AA	.	8A	.	.	.	.	.
8BB	.	8B	.	.	.	.	.
8C#yJ	.	8c#yJ	.	.	.	24ggL	.
.	.	.	.	.	.	24ff#y	.
.	.	.	.	.	.	24eeJ	.
=49	=49	=49	=49	=49	=49	=49	=49
8D'L	.	8dL	.	8ddL)	.	4ff#y)	.
8D'	.	8dd	.	8ff#y'	.	.	.
8E'	.	8dd	.	8gg'	.	4r	.
8F#y'J	.	8ddJ	.	8aa'J	.	.	.
8GL	.	8ddL	.	(8ggL	.	(8bbL	.
8G	.	8dd	.	16aa	.	16ccc#	.
.	.	.	.	16bbJ	.	16dddJ	.
8G	.	8dd	.	8aaL)	.	8ccc#yL)	.
8GJ	.	8ddJ	.	8ggJ	.	8bbJ	.
!!LO:LB
=50	=50	=50	=50	=50	=50	=50	=50
8AL	.	(8ddL	.	(8ggL	.	(8bbL	.
8A	.	8a)	.	8ff#y)	.	8aa)	.
8A	.	8a	.	8dd	.	8ff#y	.
8AJ	.	8aJ	.	8ff#yJ	.	8aaJ	.
8AAL	.	8aL	.	(8ff#yL	.	(8aaL	.
8AA	.	8a	.	8ee)	.	8gg)	.
8AA	.	8a	.	8dd	.	8ff#y	.
8AAJ	.	8gJ	.	8cc#J	.	8eeJ	.
=51	=51	=51	=51	=51	=51	=51	=51
8DL	.	8f#yL	.	8ddL	.	8ddL	.
8AA	.	8A	.	8a	.	8a	.
8BB	.	8B	.	8b	.	8b	.
8C#J	.	8c#J	.	8cc#J	.	8cc#J	.
8DL	.	8dL	.	8ddL	.	8ddL	.
8D	.	8d	.	8ddJ	.	8ddJ	.
8E	.	8e	.	(8eeLT	.	(8eeLT	.
8EJ	.	8eJ	.	16dd	.	16dd	.
.	.	.	.	16eeJ	.	16eeJ	.
=52	=52	=52	=52	=52	=52	=52	=52
8F#yL	.	8f#yL	.	8ff#yL)	.	8ff#yL)	.
8C#	.	8c#	.	8cc#	.	8cc#	.
8D	.	8d	.	8dd	.	8dd	.
8EJ	.	8eJ	.	8eeJ	.	8eeJ	.
8F#yL	.	8f#yL	.	8ff#yL	.	8ff#yL	.
8F#y	.	8f#y	.	8ff#yJ	.	8ff#yJ	.
8G	.	8g	.	(8ggLT	.	(8ggLT	.
8GJ	.	8gJ	.	16ff#y	.	16ff#y	.
.	.	.	.	16ggJ	.	16ggJ	.
=53	=53	=53	=53	=53	=53	=53	=53
8AL	.	8aL	.	8aaL)	.	8aaL)	.
8A	.	8a	.	8aaJ	.	8aaJ	.
8A#	.	8a#	.	(8aa#LT	.	(8aa#LT	.
8A#yJ	.	8a#yJ	.	16gg#	.	16gg#	.
.	.	.	.	16aa#yJ	.	16aa#yJ	.
4B	.	4b	.	4bb)	.	4bb)	.
4r	.	4r	.	4r	.	4r	.
=54	=54	=54	=54	=54	=54	=54	=54
(2G	.	(2.e	.	1g	.	(4.b	.
.	.	.	.	.	.	8ee)	.
2An)	.	.	.	.	.	(8ddL	.
.	.	.	.	.	.	8cc#	.
.	.	8dL	.	.	.	8b	.
.	.	8c#J)	.	.	.	8aJ)	.
=55	=55	=55	=55	=55	=55	=55	=55
8D	.	8d	.	8f#y	.	8dd	.
8r	.	8r	.	8r	.	8r	.
8D	.	8d	.	8a	.	8ff#y	.
8r	.	8r	.	8r	.	8r	.
8D	.	8d	.	8f#y	.	8dd	.
8r	.	8r	.	8r	.	8r	.
4r	.	4r	.	4r	.	4r	.
=56:|!	=56:|!	=56:|!	=56:|!	=56:|!	=56:|!	=56:|!	=56:|!
4D	.	4d	.	4dd 4d	.	4dd 4d	.
8r	.	8r	.	8r	.	8r	.
8AA	.	8A	.	8a	.	8a	.
4D	.	4d	.	4dd	.	4dd	.
8r	.	8r	.	8r	.	8r	.
8AA	.	8A	.	8a	.	8a	.
=57	=57	=57	=57	=57	=57	=57	=57
8DL	.	8dL	.	8ddL	.	8ddL	.
8AA	.	8A	.	8a	.	8a	.
8D	.	8d	.	8dd	.	8dd	.
8F#yJ	.	8f#yJ	.	8ff#yJ	.	8ff#yJ	.
4A	.	4a	.	4aa	.	4aa	.
4r	.	4r	.	4r	.	4r	.
=58	=58	=58	=58	=58	=58	=58	=58
4A	.	4a	.	4aa	.	4aa	.
8r	.	8r	.	8r	.	8r	.
8F#y	.	8f#y	.	8ff#y	.	8ff#y	.
4A	.	4a	.	4aa	.	4aa	.
8r	.	8r	.	8r	.	8r	.
8F#y	.	8f#y	.	8ff#y	.	8ff#y	.
=59	=59	=59	=59	=59	=59	=59	=59
8AL	.	8aL	.	8aaL	.	8aaL	.
8F#y	.	8f#y	.	8ff#y	.	8ff#y	.
8D#	.	8d#	.	8dd#	.	8dd#	.
8F#yJ	.	8f#yJ	.	8ff#yJ	.	8ff#yJ	.
4BB	.	4B	.	4b	.	4b	.
4r	.	4r	.	4r	.	4r	.
=60	=60	=60	=60	=60	=60	=60	=60
4C	.	8cL	.	8eL	.	4r	.
.	.	8c	.	8e	.	.	.
4r	.	8dn	.	8fn	.	8r	.
.	.	8dJ	.	8fJ	.	8gg	.
2r	.	8eL	.	8gL	.	(8cccL	.
.	.	8e	.	8g	.	8bb	.
.	.	8c	.	8e	.	8aa	.
.	.	8cJ	.	8eJ	.	8ggJ)	.
=61	=61	=61	=61	=61	=61	=61	=61
4GG	.	8BL	.	8dL	.	(8aaLT	.
.	.	8B	.	8d	.	8ggJ)	.
4r	.	8c	.	8e	.	8r	.
.	.	8cJ	.	8eJ	.	8gg	.
2r	.	8dL	.	8fnL	.	8ggL	.
.	.	8d	.	8f	.	8gg	.
.	.	8B	.	8d	.	8gg	.
.	.	8BJ	.	8dJ	.	8ggJ	.
!!LO:LB
=62	=62	=62	=62	=62	=62	=62	=62
4C	.	8cL	.	8eL	.	(8aaLT	.
.	.	8c	.	8e	.	8ggJ)	.
4r	.	8d	.	8fn	.	8r	.
.	.	8dJ	.	8fJ	.	8gg	.
2r	.	8eL	.	8gL	.	(8cccL	.
.	.	8e	.	8g	.	8bb	.
.	.	8c	.	8e	.	8aa	.
.	.	8cJ	.	8eJ	.	8ggJ)	.
=63	=63	=63	=63	=63	=63	=63	=63
4GG	.	8BL	.	8dL	.	(8aaLT	.
.	.	8B	.	8d	.	8ggJ)	.
4r	.	8c	.	8e	.	8r	.
.	.	8cJ	.	8eJ	.	8gg	.
2r	.	8dL	.	8fnL	.	8ggL	.
.	.	8d	.	8f	.	8gg	.
.	.	8B	.	8d	.	8gg	.
.	.	8BJ	.	8dJ	.	8ggJ	.
=64	=64	=64	=64	=64	=64	=64	=64
4C	.	8cL	.	8eL	.	(8aaLT	.
.	.	8c	.	8e	.	8ggJ)	.
4r	.	8d	.	8fn	.	8r	.
.	.	8dJ	.	8fJ	.	8gg	.
2r	.	8eL	.	8gL	.	(8cccL	.
.	.	8e	.	8g	.	8bb	.
.	.	8c	.	8e	.	8aa	.
.	.	8cJ	.	8eJ	.	8ggJ)	.
=65	=65	=65	=65	=65	=65	=65	=65
4E	.	8BL	.	8dL	.	(8aaLT	.
.	.	8B	.	8d	.	8gg#J)	.
4r	.	8c	.	8e	.	8r	.
.	.	8cJ	.	8eJ	.	8gg#y	.
2r	.	8dL	.	8fnL	.	8gg#yL	.
.	.	8d	.	8f	.	8gg#y	.
.	.	8B	.	8d	.	8gg#y	.
.	.	8BJ	.	8dJ	.	8gg#yJ	.
=66	=66	=66	=66	=66	=66	=66	=66
4AA	.	8AL	.	8cL	.	(8bbLT	.
.	.	8A	.	8c	.	8aaJ)	.
4r	.	8B	.	8d	.	8r	.
.	.	8BJ	.	8dJ	.	8aa	.
2r	.	8cL	.	8eL	.	(8cccL	.
.	.	8c	.	8e	.	8bb-	.
.	.	8A	.	8c	.	8aa	.
.	.	8AJ	.	8cJ	.	8ggnJ)	.
=67	=67	=67	=67	=67	=67	=67	=67
4D	.	8AL	.	8cL	.	(8ggLT	.
.	.	8A	.	8c	.	8ff#yJ)	.
4r	.	8B-	.	8d	.	8r	.
.	.	8B-yJ	.	8dJ	.	8ff#y	.
2r	.	8cL	.	8e-L	.	8ff#yL	.
.	.	8c	.	8e-y	.	8ff#y	.
.	.	8A	.	8c	.	8ff#y	.
.	.	8AJ	.	8cJ	.	8ff#yJ	.
!!LO:LB
=68	=68	=68	=68	=68	=68	=68	=68
[1E-	.	8GL	.	8B-L	.	(8aaLT	.
.	.	8G	.	8B-y	.	8ggJ)	.
.	.	8F#	.	8A	.	8r	.
.	.	8F#yJ	.	8AJ	.	8ee-	.
.	.	8GL	.	8B-yL	.	(8ggL	.
.	.	8G	.	8B-y	.	8ffn	.
.	.	8f#	.	8a	.	8ee-y	.
.	.	8f#yJ	.	8aJ	.	8ddJ)	.
=69	=69	=69	=69	=69	=69	=69	=69
1E-y]	.	8gL	.	8b-L	.	(8ddLT	.
.	.	8g	.	8b-y	.	8cc#J)	.
.	.	8f#y	.	8a	.	8r	.
.	.	8f#yJ	.	8aJ	.	8cc#y	.
.	.	8gL	.	8b-yL	.	8cc#yL	.
.	.	8G	.	8b-y	.	8cc#y	.
.	.	8F#y	.	8a	.	8cc#y	.
.	.	8GJ	.	8gJ	.	8cc#yJ	.
=70	=70	=70	=70	=70	=70	=70	=70
4D	.	4A	.	4f#	.	(8eenLT	.
.	.	.	.	.	.	8ddJ)	.
8r	.	8r	.	8r	.	8r	.
(8D	.	(8D	.	(8d	.	(8d	.
8EnL	.	8EL	.	8eL	.	8eL	.
8F#y	.	8F#y	.	8f#y	.	8f#y	.
8G	.	8G	.	8g	.	8g	.
8AJ	.	8AJ	.	8aJ	.	8aJ	.
=71	=71	=71	=71	=71	=71	=71	=71
8cL	.	8cL	.	8ccL	.	8ccL	.
8B-J)	.	8B-J)	.	8b-J)	.	8b-J)	.
8r	.	8r	.	8r	.	8r	.
(8F#y	.	(8F#y	.	(8f#y	.	(8f#y	.
8GL	.	8GL	.	8gL	.	8gL	.
8A	.	8A	.	8a	.	8a	.
8B-	.	8B-	.	8b-	.	8b-	.
8c#J	.	8c#J	.	8cc#J	.	8cc#J	.
=72	=72	=72	=72	=72	=72	=72	=72
8enL	.	8enL	.	8eenL	.	8eenL	.
8dJ)	.	8dJ)	.	8ddJ)	.	8ddJ)	.
4r	.	4r	.	8r	.	8r	.
.	.	.	.	(8d	.	(8dd	.
2r	.	2r	.	8eL	.	8eeL	.
.	.	.	.	8f#y	.	8ff#y	.
.	.	.	.	8g	.	8gg	.
.	.	.	.	8aJ)	.	8aaJ)	.
=73	=73	=73	=73	=73	=73	=73	=73
1r	.	1r	.	(4b-	.	(4bb-	.
.	.	.	.	4bn	.	4bbn	.
.	.	.	.	4cc	.	4ccc	.
.	.	.	.	4cc#)	.	4ccc#)	.
!!LO:LB
=74	=74	=74	=74	=74	=74	=74	=74
1r	.	8bn'L	.	8dd'L	.	[1ddd	.
.	.	8b'	.	8dd'	.	.	.
.	.	(8b	.	(8dd	.	.	.
.	.	8ccJ)	.	8eeJ)	.	.	.
.	.	8a'L	.	8ccn'L	.	.	.
.	.	8a'	.	8cc'	.	.	.
.	.	(8a	.	(8cc	.	.	.
.	.	8bJ)	.	8ddJ)	.	.	.
=75	=75	=75	=75	=75	=75	=75	=75
1D	.	8g'L	.	8b'L	.	2ddd]	.
.	.	8g'	.	8b'	.	.	.
.	.	(8g	.	(8b	.	.	.
.	.	8bJ)	.	8ddJ)	.	.	.
.	.	(8bL	.	(8ddL	.	(4.ff#yT	.
.	.	8a)	.	8cc)	.	.	.
.	.	8g'	.	8b'	.	.	.
.	.	8d'J	.	8a'J	.	16eeL	.
.	.	.	.	.	.	16ff#yJ)	.
=76	=76	=76	=76	=76	=76	=76	=76
4G	.	4B	.	4g	.	4gg	.
8r	.	8r	.	8r	.	8r	.
8D	.	8d	.	8dd	.	8dd	.
4G	.	4g	.	4gg	.	4gg	.
8r	.	8r	.	8r	.	8r	.
8D	.	8d	.	8dd	.	8dd	.
=77	=77	=77	=77	=77	=77	=77	=77
8GL	.	8gL	.	8ggL	.	8ggL	.
8D	.	8d	.	8dd	.	8dd	.
8G	.	8g	.	8gg	.	8gg	.
8BJ	.	8bJ	.	8bbJ	.	8bbJ	.
4d	.	4dd	.	4ddd	.	4ddd	.
4r	.	4r	.	4r	.	4r	.
=78	=78	=78	=78	=78	=78	=78	=78
4c	.	4cc	.	4ccc	.	4ccc	.
8r	.	8r	.	8r	.	8r	.
8A	.	8a	.	8aa	.	8aa	.
4c	.	4cc	.	4ccc	.	4ccc	.
8r	.	8r	.	8r	.	8r	.
8A	.	8a	.	8aa	.	8aa	.
=79	=79	=79	=79	=79	=79	=79	=79
8cL	.	8ccL	.	8cccL	.	8cccL	.
8A	.	8a	.	8aa	.	8aa	.
8F#y	.	8f#y	.	8ff#y	.	8ff#y	.
8AJ	.	8aJ	.	8aaJ	.	8aaJ	.
4D	.	4d	.	4dd	.	4dd	.
4r	.	4r	.	4r	.	4r	.
=80	=80	=80	=80	=80	=80	=80	=80
8GL	.	8gL	.	16dL 16B	.	8gg 8b 8d	.
.	.	.	.	16d 16B	.	.	.
8G	.	8g	.	16d 16B	.	8r	.
.	.	.	.	16dJ 16B	.	.	.
8G	.	8g	.	16dL 16B	.	4.gg	.
.	.	.	.	16d 16B	.	.	.
8GJ	.	8gJ	.	16d 16B	.	.	.
.	.	.	.	16dJ 16B	.	.	.
8GL	.	8gL	.	16dL 16B	.	.	.
.	.	.	.	16d 16B	.	.	.
8G	.	8g	.	16d 16B	.	(8bbL	.
.	.	.	.	16dJ 16B	.	.	.
8G	.	8g	.	16dL 16B	.	8aa)	.
.	.	.	.	16d 16B	.	.	.
8GJ	.	8gJ	.	16d 16B	.	8ggJ	.
.	.	.	.	16dJ 16B	.	.	.
=81	=81	=81	=81	=81	=81	=81	=81
8GL	.	8aL	.	16dL 16c	.	(8ggLT	.
.	.	.	.	16d 16c	.	.	.
8G	.	8a	.	16d 16c	.	8ff#yJ)	.
.	.	.	.	16dJ 16c	.	.	.
8G	.	8a	.	16dL 16c	.	4.ff#y	.
.	.	.	.	16d 16c	.	.	.
8GJ	.	8aJ	.	16d 16c	.	.	.
.	.	.	.	16dJ 16c	.	.	.
8GL	.	(8aL	.	16dL 16c	.	.	.
.	.	.	.	16d 16c	.	.	.
8G	.	8cc)	.	16d 16c	.	(8aaL	.
.	.	.	.	16dJ 16c	.	.	.
8G	.	(8f#y	.	16dL 16c	.	8ccc)	.
.	.	.	.	16d 16c	.	.	.
8GJ	.	8aJ)	.	16d 16c	.	8ff#yJ	.
.	.	.	.	16dJ 16c	.	.	.
=82	=82	=82	=82	=82	=82	=82	=82
8GL	.	8gL	.	16dL 16B	.	(8aaL	.
.	.	.	.	16d 16B	.	.	.
8G	.	8g	.	16d 16B	.	8ggJ)	.
.	.	.	.	16dJ 16B	.	.	.
8G	.	8g	.	16dL 16B	.	4.gg	.
.	.	.	.	16d 16B	.	.	.
8GJ	.	8gJ	.	16d 16B	.	.	.
.	.	.	.	16dJ 16B	.	.	.
8GL	.	8gL	.	16dL 16B	.	.	.
.	.	.	.	16d 16B	.	.	.
8G	.	8g	.	16d 16B	.	(8bbL	.
.	.	.	.	16dJ 16B	.	.	.
8G	.	8g	.	16dL 16B	.	8aa)	.
.	.	.	.	16d 16B	.	.	.
8GJ	.	8gJ	.	16d 16B	.	8ggJ	.
.	.	.	.	16dJ 16B	.	.	.
!!LO:LB
=83	=83	=83	=83	=83	=83	=83	=83
8GL	.	8aL	.	16dL 16c	.	(8ggLT	.
.	.	.	.	16d 16c	.	.	.
8G	.	8a	.	16d 16c	.	8ff#yJ)	.
.	.	.	.	16dJ 16c	.	.	.
8G	.	8a	.	16dL 16c	.	4.ff#y	.
.	.	.	.	16d 16c	.	.	.
8GJ	.	8aJ	.	16d 16c	.	.	.
.	.	.	.	16dJ 16c	.	.	.
8GL	.	(8aL	.	16dL 16c	.	.	.
.	.	.	.	16d 16c	.	.	.
8G	.	8cc)	.	16d 16c	.	(8aaL	.
.	.	.	.	16dJ 16c	.	.	.
8G	.	(8f#y	.	16dL 16c	.	8ccc)	.
.	.	.	.	16d 16c	.	.	.
8GJ	.	8aJ)	.	16d 16c	.	8ff#yJ	.
.	.	.	.	16dJ 16c	.	.	.
=84	=84	=84	=84	=84	=84	=84	=84
8GL	.	16dL	.	4d 4B	.	8gg'L	.
.	.	16d	.	.	.	.	.
8G	.	16d	.	.	.	8gg'J	.
.	.	16dJ	.	.	.	.	.
.	.	.	.	.	.	(<16qgg	.
8A	.	16dL	.	8ccL	.	(8ff#yL)	.
.	.	16d	.	.	.	.	.
8AJ	.	16d	.	8ccJ	.	16ee	.
.	.	16dJ	.	.	.	16ff#yJ)	.
8BL	.	16dL	.	8ddL	.	8ggL	.
.	.	16d	.	.	.	.	.
8B	.	16d	.	8ddJ	.	8ggJ	.
.	.	16dJ	.	.	.	.	.
.	.	.	.	.	.	(<16qbb	.
8F#y	.	16dL	.	(8ccL	.	(8aaL)	.
.	.	16d	.	.	.	.	.
8F#yJ	.	16d	.	16b	.	16gg	.
.	.	16dJ	.	16aJ)	.	16aaJ)	.
=85	=85	=85	=85	=85	=85	=85	=85
8GL	.	16dL	.	8gL	.	8bbL	.
.	.	16d	.	.	.	.	.
8G	.	16d	.	8g	.	8bbJ	.
.	.	16dJ	.	.	.	.	.
.	.	.	.	.	.	(<16qddd	.
8A	.	16dL	.	8f#y	.	(8cccL)	.
.	.	16d	.	.	.	.	.
8AJ	.	16d	.	8f#yJ	.	16bb	.
.	.	16dJ	.	.	.	16cccJ	.
4B	.	4d	.	4g	.	4ddd)	.
4r	.	4r	.	4r	.	4r	.
=86	=86	=86	=86	=86	=86	=86	=86
1r	.	1r	.	(2b	.	(2dd	.
.	.	.	.	2cc)	.	2ee)	.
=87	=87	=87	=87	=87	=87	=87	=87
.	.	.	.	(<16qb	.	.	.
.	.	.	.	.	.	(<16qdd	.
(2D	.	(2F#y	.	4a)	.	4cc)	.
.	.	.	.	4a	.	4cc	.
.	.	.	.	(<16qa	.	.	.
.	.	.	.	.	.	(<16qcc	.
2E)	.	2G)	.	4g)	.	4b)	.
.	.	.	.	4g	.	4b	.
!!LO:LB
=88	=88	=88	=88	=88	=88	=88	=88
.	.	.	.	.	.	(<16qb	.
4C	.	4c	.	4e	.	4a)	.
4C	.	4c	.	4e	.	4a	.
4D	.	4A	.	4c	.	(8gL	.
.	.	.	.	.	.	8f#y)	.
4D	.	4D	.	4A	.	8e'	.
.	.	.	.	.	.	8f#y'J	.
=89	=89	=89	=89	=89	=89	=89	=89
8BB	.	8D	.	8d	.	8g	.
8r	.	8r	.	8r	.	8r	.
8D	.	8d	.	8f#y	.	8a	.
8r	.	8r	.	8r	.	8r	.
4G	.	4d	.	8g	.	8b	.
.	.	.	.	8r	.	8r	.
4r	.	4r	.	4r	.	4r	.
=90	=90	=90	=90	=90	=90	=90	=90
1r	.	1r	.	(2b	.	(2dd	.
.	.	.	.	2cc)	.	2ee)	.
=91	=91	=91	=91	=91	=91	=91	=91
(2D	.	(2f#y	.	(8bL	.	(8ddL	.
.	.	.	.	8a)	.	8cc)	.
.	.	.	.	8a'	.	8cc'	.
.	.	.	.	8a'J	.	8cc'J	.
2E)	.	2g)	.	(8aL	.	(8ccL	.
.	.	.	.	8g)	.	8b)	.
.	.	.	.	8g'	.	8b'	.
.	.	.	.	8g'J	.	8b'J	.
=92	=92	=92	=92	=92	=92	=92	=92
4C	.	4c	.	4e	.	(8bL	.
.	.	.	.	.	.	8a)	.
4C	.	8cL	.	8eL	.	8a'	.
.	.	8cJ	.	8eJ	.	8a'J	.
4D	.	4A	.	4c	.	(8gL	.
.	.	.	.	.	.	8f#y	.
4D	.	8AL	.	8cL	.	8e	.
.	.	8AJ	.	8cJ	.	8f#yJ)	.
=93	=93	=93	=93	=93	=93	=93	=93
8GL	.	8GL	.	[2B	.	[2g [2G	.
8G	.	8G	.	.	.	.	.
8G	.	8G	.	.	.	.	.
8GJ	.	8GJ	.	.	.	.	.
8GL	.	8GL	.	8BL]	.	8gL] 8G]	.
8G	.	8G	.	(16BT	.	(16gT	.
.	.	.	.	32A	.	32f#y	.
.	.	.	.	32BJ	.	32gJ	.
8G	.	8G	.	8cL	.	8aL	.
8GJ	.	8GJ	.	8AJ)	.	8f#yJ)	.
!!LO:LB
=94	=94	=94	=94	=94	=94	=94	=94
8GL	.	8GL	.	[2g	.	[2b	.
8G	.	8G	.	.	.	.	.
8G	.	8G	.	.	.	.	.
8GJ	.	8GJ	.	.	.	.	.
8GL	.	8GL	.	8gL]	.	8bL]	.
8G	.	8G	.	(16gT	.	(16bT	.
.	.	.	.	32f#y	.	32a	.
.	.	.	.	32gJ	.	32bJ	.
8G	.	8G	.	8aL	.	8ccL	.
8GJ	.	8GJ	.	8f#yJ)	.	8aJ)	.
=95	=95	=95	=95	=95	=95	=95	=95
8GL	cre	8GL	cre	16bL	cre	16ddL	cre
.	.	.	.	16b	.	16dd	.
8G	.	8g	.	16b	.	16dd	.
.	.	.	.	16bJ	.	16ddJ	.
8G	.	8g	.	16bL	.	16ddL	.
.	.	.	.	16b	.	16dd	.
8GJ	.	8gJ	.	16b	.	16dd	.
.	.	.	.	16bJ	.	16ddJ	.
8GL	.	8gL	.	16ccL	.	16eeL	.
.	.	.	.	16cc	.	16ee	.
8G	.	8g	.	16cc	.	16ee	.
.	.	.	.	16ccJ	.	16eeJ	.
8G	.	8a	.	16ccL	.	16ff#yL	.
.	.	.	.	16cc	.	16ff#y	.
8GJ	.	8aJ	.	16cc	.	16ff#y	.
.	.	.	.	16ccJ	.	16ff#yJ	.
=96	=96	=96	=96	=96	=96	=96	=96
8GL	do	8gL	.	16bL	.	16ggL	do
.	.	.	.	16b	.	16gg	.
8G	.	8g	.	16b	.	16gg	.
.	.	.	.	16bJ	.	16ggJ	.
8F#y	.	8f#y	.	16ddL	.	16aaL	.
.	.	.	.	16dd	.	16aa	.
8F#yJ	.	8f#yJ	.	16dd	.	16aa	.
.	.	.	.	16ddJ	.	16aaJ	.
8GL	.	8gL	.	16ddL	.	16bbL	.
.	.	.	.	16dd	.	16bb	.
8G	.	8g	.	16dd	.	16bb	.
.	.	.	.	16ddJ	.	16bbJ	.
8E	.	8e	.	16ggL	.	16ccc#L	.
.	.	.	.	16gg	.	16ccc#y	.
8EJ	.	8eJ	.	16gg	.	16ccc#y	.
.	.	.	.	16ggJ	.	16ccc#yJ	.
=97	=97	=97	=97	=97	=97	=97	=97
8DL	.	16aL 16d	.	16ff#yL	.	(4.ddd	.
.	.	16a 16d	.	16ff#y	.	.	.
8D	.	16a 16d	.	16ff#y	.	.	.
.	.	16aJ 16d	.	16ff#yJ	.	.	.
8D	.	16aL 16d	.	16ff#yL	.	.	.
.	.	16a 16d	.	16ff#y	.	.	.
8DJ	.	16a 16d	.	16ff#y	.	8aa)	.
.	.	16aJ 16d	.	16ff#yJ	.	.	.
8DL	.	16aL 16e	.	16ggL	.	(8.ccc#L	.
.	.	16a 16e	.	16gg	.	.	.
8D	.	16a 16e	.	16gg	.	.	.
.	.	16aJ 16e	.	16ggJ	.	16aa)	.
8D	.	16aL 16e	.	16ggL	.	(8.ccc#y	.
.	.	16a 16e	.	16gg	.	.	.
8DJ	.	16a 16e	.	16gg	.	.	.
.	.	16aJ 16e	.	16ggJ	.	16aaJ)	.
=98	=98	=98	=98	=98	=98	=98	=98
8DL	.	16aL 16d	.	16ff#yL	.	(4.ddd	.
.	.	16a 16d	.	16ff#y	.	.	.
8D	.	16a 16d	.	16ff#y	.	.	.
.	.	16aJ 16d	.	16ff#yJ	.	.	.
8D	.	16aL 16d	.	16ff#yL	.	.	.
.	.	16a 16d	.	16ff#y	.	.	.
8DJ	.	16a 16d	.	16ff#y	.	8aa)	.
.	.	16aJ 16d	.	16ff#yJ	.	.	.
8DL	.	16aL 16e	.	16ggL	.	(8.ccc#L	.
.	.	16a 16e	.	16gg	.	.	.
8D	.	16a 16e	.	16gg	.	.	.
.	.	16aJ 16e	.	16ggJ	.	16aa)	.
8D	.	16aL 16e	.	16ggL	.	(8.ccc#y	.
.	.	16a 16e	.	16gg	.	.	.
8DJ	.	16a 16e	.	16gg	.	.	.
.	.	16aJ 16e	.	16ggJ	.	16aaJ)	.
=99	=99	=99	=99	=99	=99	=99	=99
8DL	.	16aL 16d	.	16ff#yL	.	8ddd'L	.
.	.	16a 16d	.	16ff#y	.	.	.
8D	.	16a 16d	.	16ff#y	.	8aa'	.
.	.	16aJ 16d	.	16ff#yJ	.	.	.
8D	.	16aL 16e	.	16ggL	.	8ccc#'	.
.	.	16a 16e	.	16gg	.	.	.
8DJ	.	16a 16e	.	16gg	.	8aa'J	.
.	.	16aJ 16e	.	16ggJ	.	.	.
8DL	.	16aL 16d	.	16ff#yL	.	8dddL	.
.	.	16a 16d	.	16ff#y	.	.	.
8D	.	16a 16d	.	16ff#y	.	8aa	.
.	.	16aJ 16d	.	16ff#yJ	.	.	.
8D	.	16aL 16e	.	16ggL	.	8ccc#y	.
.	.	16a 16e	.	16gg	.	.	.
8DJ	.	16a 16e	.	16gg	.	8aaJ	.
.	.	16aJ 16e	.	16ggJ	.	.	.
=100	=100	=100	=100	=100	=100	=100	=100
8DL	.	8aL 8d	.	8ff#yL	.	8dddL	.
8D	.	8D	.	8d	.	8d	.
8D	.	8D	.	8d	.	8d	.
8DJ	.	8DJ	.	8dJ	.	8dJ	.
4D	.	4D	.	4d	.	4d	.
4r	.	4r	.	4r	.	4r	.
=101	=101	=101	=101	=101	=101	=101	=101
2r	.	2r	.	(4.d	.	(4.dd	.
.	.	.	.	24cnL	.	24ccnL	.
.	.	.	.	24B	.	24b	.
.	.	.	.	24AJ	.	24aJ	.
4r	.	4r	.	8G)	.	8g)	.
.	.	.	.	8r	.	8r	.
8G#	.	8B	.	8e	.	8ee	.
8r	.	8r	.	8r	.	8r	.
!!LO:LB
=102	=102	=102	=102	=102	=102	=102	=102
8A	.	8E	.	8c	.	8cc	.
8r	.	8r	.	8r	.	8r	.
8Gn	.	8c	.	8A	.	8a	.
8r	.	8r	.	8r	.	8r	.
8F#y	.	8A	.	8d	.	8dd	.
8r	.	8r	.	8r	.	8r	.
8D	.	8F#y	.	4r	.	4r	.
8r	.	8r	.	.	.	.	.
=103	=103	=103	=103	=103	=103	=103	=103
4r	.	4r	.	(4.b	.	(4.bb	.
(4D#	.	(4a	.	.	.	.	.
.	.	.	.	24aL	.	24aaL	.
.	.	.	.	24g	.	24gg	.
.	.	.	.	24f#yJ)	.	24ff#yJ	.
8E)	.	8g)	.	8e	.	8ee)	.
8r	.	8r	.	8r	.	8r	.
8C	.	8a	.	8cc	.	8ccc	.
8r	.	8r	.	8r	.	8r	.
=104	=104	=104	=104	=104	=104	=104	=104
4Dn	.	(2g	.	(2b	.	(2bb	.
(4.d	.	.	.	.	.	.	.
.	.	4f#y)	.	4a)	.	4aa)	.
8c#L	.	.	.	.	.	.	.
8cn	.	4r	.	4r	.	4r	.
8AJ	.	.	.	.	.	.	.
=105	=105	=105	=105	=105	=105	=105	=105
8G)	.	4r	.	(4.dd	.	8r	.
8r	.	.	.	.	.	8ddd'L	.
8A	.	(4f#y	.	.	.	8ddd'	.
8r	.	.	.	24ccL	.	8ddd'J	.
.	.	.	.	24b	.	.	.
.	.	.	.	24aJ	.	.	.
8B	.	8g)	.	8g)	.	8dddL	.
8r	.	8r	.	8r	.	8ddd	.
8G#	.	8b	.	8ee	.	8ddd	.
8r	.	8r	.	8r	.	8dddJ	.
=106	=106	=106	=106	=106	=106	=106	=106
8A	.	8e	.	8cc	.	8dddL	.
8r	.	8r	.	8r	.	8ddd	.
8Gn	.	8c	.	8a	.	8ddd	.
8r	.	8r	.	8r	.	8dddJ	.
8F#y	.	4A	.	4dd	.	(8dddL	.
8r	.	.	.	.	.	8ccc	.
8D	.	8r	.	8r	.	8aa	.
8r	.	8a	.	8cc	.	8ff#yJ)	.
!!LO:LB
=107	=107	=107	=107	=107	=107	=107	=107
8E	.	(8aL	.	(8ccL	.	(8ff#yL	.
8r	.	8gJ)	.	8bJ)	.	8ggJ)	.
8C	.	4r	.	8r	.	8r	.
8r	.	.	.	8cc	.	8ee	.
8D	.	2r	.	(8ccL	.	(8eeL	.
8r	.	.	.	8bJ)	.	8ddJ)	.
8D	.	.	.	8r	.	8r	.
8r	.	.	.	8c	.	8f#y	.
=108	=108	=108	=108	=108	=108	=108	=108
4GG	.	8GL	.	8BL	.	4g	.
.	.	8G	.	8B	.	.	.
4r	.	8A	.	8c	.	8r	.
.	.	8AJ	.	8cJ	.	8dd	.
2r	.	8BL	.	8dL	.	(8ggL	.
.	.	8B	.	8d	.	8ff#y	.
.	.	8G	.	8B	.	8ee	.
.	.	8GJ	.	8BJ	.	8ddJ)	.
=109	=109	=109	=109	=109	=109	=109	=109
4D	.	8F#yL	.	8AL	.	(8eeLT	.
.	.	8F#y	.	8A	.	8ddJ)	.
4r	.	8G	.	8B	.	8r	.
.	.	8GJ	.	8BJ	.	8dd	.
2r	.	8AL	.	8cL	.	8dd'L	.
.	.	8A	.	8c	.	8dd'	.
.	.	8F#y	.	8A	.	8dd'	.
.	.	8F#yJ	.	8AJ	.	8dd'J	.
=110	=110	=110	=110	=110	=110	=110	=110
4GG	.	8GL	.	8BL	.	(8eeLT	.
.	.	8G	.	8B	.	8ddJ)	.
4r	.	8A	.	8c	.	8r	.
.	.	8AJ	.	8cJ	.	8dd	.
2r	.	8BL	.	8dL	.	(8ggL	.
.	.	8B	.	8d	.	8ff#y	.
.	.	8G	.	8B	.	8ee	.
.	.	8GJ	.	8BJ	.	8ddJ)	.
=111	=111	=111	=111	=111	=111	=111	=111
4D	.	8F#yL	.	8AL	.	(8eeLT	.
.	.	8F#y	.	8A	.	8ddJ)	.
4r	.	8G	.	8B	.	8r	.
.	.	8GJ	.	8BJ	.	8dd	.
2r	.	8AL	.	8cL	.	8ddL	.
.	.	8A	.	8c	.	8dd	.
.	.	8F#y	.	8A	.	8dd	.
.	.	8F#yJ	.	8AJ	.	8ddJ	.
=112	=112	=112	=112	=112	=112	=112	=112
8r	.	8GL	.	4B	.	(8eeLT	.
8GL	.	8g	.	.	.	8ddJ)	.
8B	.	8b	.	4r	.	4r	.
8AJ	.	8aJ	.	.	.	.	.
8G#L	.	8g#L	.	2b (2e	.	(4.ee 4.e	.
8E	.	8e	.	.	.	.	.
8F#y	.	8f#y	.	.	.	.	.
8G#yJ	.	8g#yJ	.	.	.	24ddL	.
.	.	.	.	.	.	24cc	.
.	.	.	.	.	.	24bJ	.
!!LO:LB
=113	=113	=113	=113	=113	=113	=113	=113
8AL	.	8aL	.	4a)	.	4cc)	.
8c	.	8cc	.	.	.	.	.
8A	.	8a	.	4r	.	4r	.
8GnJ	.	8gnJ	.	.	.	.	.
8F#yL	.	8f#yL	.	2a (<2d	.	(4.dd 4.d	.
8D	.	8d	.	.	.	.	.
8E	.	8e	.	.	.	.	.
8F#yJ	.	8f#yJ	.	.	.	24ccL	.
.	.	.	.	.	.	24b	.
.	.	.	.	.	.	24aJ	.
=114	=114	=114	=114	=114	=114	=114	=114
8GL	.	8gL	.	8gL)	.	4b)	.
8G'	.	8g	.	8b'	.	.	.
8A'	.	8g	.	8cc'	.	4r	.
8B'J	.	8gJ	.	8dd'J	.	.	.
8cL	.	8gL	.	(8ccL	.	(8eeL	.
8c	.	8g	.	16dd	.	16ff#y	.
.	.	.	.	16eeJ	.	16ggJ	.
8c	.	8g	.	8ddL)	.	8ff#yL)	.
8cJ	.	8gJ	.	8ccJ	.	8eeJ	.
=115	=115	=115	=115	=115	=115	=115	=115
8dL	.	(8gL	.	(8ccL	.	(8eeL	.
8d	.	8d)	.	8b)	.	8dd)	.
8d	.	8d	.	8g	.	8b	.
8dJ	.	8dJ	.	8bJ	.	8ddJ	.
8DL	.	8dL	.	(8bL	.	(8ddL	.
8D	.	8d	.	8a)	.	8cc)	.
8D	.	8d	.	8g	.	8b	.
8DJ	.	8cJ	.	8f#yJ	.	8aJ	.
=116	=116	=116	=116	=116	=116	=116	=116
4G	.	8BL	.	8gL	.	4g	.
.	.	8G	.	8B	.	.	.
4r	.	8A	.	8c	.	8r	.
.	.	8AJ	.	8cJ	.	8dd	.
2r	.	8BL	.	8dL	.	(8ggL	.
.	.	8B	.	8d	.	8ff#y	.
.	.	8G	.	8B	.	8ee	.
.	.	8GJ	.	8BJ	.	8ddJ)	.
=117	=117	=117	=117	=117	=117	=117	=117
4D	.	8F#yL	.	8AL	.	(8eeLT	.
.	.	8F#y	.	8A	.	8ddJ)	.
4r	.	8G	.	8B	.	8r	.
.	.	8GJ	.	8BJ	.	8dd	.
2r	.	8AL	.	8cL	.	8ddL	.
.	.	8A	.	8c	.	8dd	.
.	.	8F#y	.	8A	.	8dd	.
.	.	8F#yJ	.	8AJ	.	8ddJ	.
=118	=118	=118	=118	=118	=118	=118	=118
4G	.	8GL	.	8BL	.	(8eeLT	.
.	.	8g	.	8b	.	8ddJ)	.
4r	.	8a	.	8cc	.	8r	.
.	.	8aJ	.	8ccJ	.	8dd	.
2r	.	8bL	.	8ddL	.	(8ggL	.
.	.	8b	.	8dd	.	8ff#y	.
.	.	8g	.	8b	.	8ee	.
.	.	8gJ	.	8bJ	.	8ddJ)	.
=119	=119	=119	=119	=119	=119	=119	=119
4D	.	8f#yL	.	8aL	.	(8eeLT	.
.	.	8f#y	.	8a	.	8ddJ)	.
4r	.	8g	.	8b	.	8r	.
.	.	8gJ	.	8bJ	.	8dd	.
2r	.	8aL	.	8ccL	.	8ddL	.
.	.	8a	.	8cc	.	8dd	.
.	.	8f#y	.	8a	.	8dd	.
.	.	8f#yJ	.	8aJ	.	8ddJ	.
=120	=120	=120	=120	=120	=120	=120	=120
8r	.	8gL	.	4b	.	(8eeLT	.
8GL	.	8g	.	.	.	8ddJ)	.
8B	.	8b	.	4r	.	4r	.
8AJ	.	8aJ	.	.	.	.	.
8G#L	.	8g#L	.	(2bb	.	(4.eee	.
8E	.	8e	.	.	.	.	.
8F#y	.	8f#y	.	.	.	.	.
8G#yJ	.	8g#yJ	.	.	.	24dddL	.
.	.	.	.	.	.	24ccc	.
.	.	.	.	.	.	24bbJ	.
=121	=121	=121	=121	=121	=121	=121	=121
8AL	.	8aL	.	4aa)	.	4ccc)	.
8c	.	8cc	.	.	.	.	.
8A	.	8a	.	4r	.	4r	.
8GnJ	.	8gnJ	.	.	.	.	.
8F#yL	.	8f#yL	.	(2aa	.	(4.ddd 4.dd	.
8D	.	8d	.	.	.	.	.
8E	.	8e	.	.	.	.	.
8F#yJ	.	8f#yJ	.	.	.	24cccL	.
.	.	.	.	.	.	24bb	.
.	.	.	.	.	.	24aaJ	.
=122	=122	=122	=122	=122	=122	=122	=122
8GL	.	8gL	.	8ggL)	.	4bb)	.
8G'	.	8g	.	8b'	.	.	.
8A'	.	8g	.	8cc'	.	4r	.
8B'J	.	8gJ	.	8dd'J	.	.	.
8cL	.	8gL	.	(8ccL	.	(8eeL	.
8c	.	8g	.	16dd	.	16ff#y	.
.	.	.	.	16eeJ	.	16ggJ	.
8c	.	8g	.	8ddL)	.	8ff#yL)	.
8cJ	.	8gJ	.	8ccJ	.	8eeJ	.
=123	=123	=123	=123	=123	=123	=123	=123
8dL	.	(8gL	.	8b'L	.	8dd'L	.
8d	.	8b)	.	8dd'	.	8gg'	.
8d	.	8dd	.	8gg'	.	8bb'	.
8dJ	.	8ddJ	.	8bb'J	.	8ddd'J	.
8DL	.	8ddL	.	(8bbL	.	(8dddL	.
8D	.	8dd	.	8aa)	.	8ccc)	.
8D	.	8dd	.	8gg	.	8bb	.
8DJ	.	8ccJ	.	8ff#yJ	.	8aaJ	.
=124	=124	=124	=124	=124	=124	=124	=124
8GL	.	8bL	.	8ggL	.	8ggL	.
8D	.	8d	.	8d	.	8d	.
8E	.	8e	.	8e	.	8e	.
8F#yJ	.	8f#yJ	.	8f#yJ	.	8f#yJ	.
8GL	.	8gL	.	8gL	.	8gL	.
8G	.	8g	.	8gJ	.	8gJ	.
8A	.	8a	.	(8aLT	.	(8aLT	.
8AJ	.	8aJ	.	16g	.	16g	.
.	.	.	.	16aJ	.	16aJ	.
!!LO:LB
=125	=125	=125	=125	=125	=125	=125	=125
8BL	.	8bL	.	8bL)	.	8bL)	.
8F#y	.	8F#y	.	8f#y	.	8f#y	.
8G	.	8G	.	8g	.	8g	.
8AJ	.	8AJ	.	8aJ	.	8aJ	.
8BL	.	8BL	.	8bL	.	8bL	.
8B	.	8B	.	8bJ	.	8bJ	.
8c	.	8c	.	(8ccLT	.	(8ccLT	.
8cJ	.	8cJ	.	16b	.	16b	.
.	.	.	.	16ccJ	.	16ccJ	.
=126	=126	=126	=126	=126	=126	=126	=126
8dL	.	8dL	.	8ddL)	.	8ddL)	.
8d	.	8d	.	8ddJ	.	8ddJ	.
8d#	.	8d#	.	(8dd#LT	.	(8dd#LT	.
8d#yJ	.	8d#yJ	.	16cc#	.	16cc#	.
.	.	.	.	16dd#yJ	.	16dd#yJ	.
4e	.	4e	.	4ee)	.	4ee)	.
4r	.	4r	.	4r	.	4r	.
=127	=127	=127	=127	=127	=127	=127	=127
(2C	.	(2.A	.	(1c	.	(4.e	.
.	.	.	.	.	.	8a)	.
2Dn)	.	.	.	.	.	(8gL	.
.	.	.	.	.	.	8f#y	.
.	.	8GL	.	.	.	8e	.
.	.	8F#yJ)	.	.	.	8dJ)	.
=128	=128	=128	=128	=128	=128	=128	=128
4GG	.	4G	.	4B)	.	(8ddL	.
.	.	.	.	.	.	8cc#	.
4r	.	4r	.	4r	.	8ccn	.
.	.	.	.	.	.	8bJ	.
2r	.	2r	.	2r	.	8ddL	.
.	.	.	.	.	.	8cc#	.
.	.	.	.	.	.	8ccn	.
.	.	.	.	.	.	8bJ)	.
=129	=129	=129	=129	=129	=129	=129	=129
(2C	.	(2.A	.	(1c	.	(4.e	.
.	.	.	.	.	.	8a)	.
2D)	.	.	.	.	.	(8gL	.
.	.	.	.	.	.	8f#y	.
.	.	8GL	.	.	.	8e	.
.	.	8F#yJ)	.	.	.	8dJ)	.
!!LO:LB
=130	=130	=130	=130	=130	=130	=130	=130
4GG	.	4G	.	4B)	.	(8ddL	.
.	.	.	.	.	.	8ee	.
4r	.	4r	.	4r	.	8ff#y	.
.	.	.	.	.	.	8ggJ	.
2r	.	4g	.	4b	.	8ddL	.
.	.	.	.	.	.	8ee	.
.	.	4r	.	4r	.	8ff#y	.
.	.	.	.	.	.	8ggJ)	.
=131	=131	=131	=131	=131	=131	=131	=131
4C	.	4e	.	4ee	.	4aa	.
4r	.	4r	.	4r	.	4r	.
4D	.	4a 4d	.	4ff#y 4cc	.	4ddd 4dd 4d	.
4r	.	4r	.	4r	.	4r	.
=132	=132	=132	=132	=132	=132	=132	=132
8GGL	.	16GL	.	16dL 16B	.	4gg 4b 4d	.
.	.	16G	.	16d 16B	.	.	.
8GG	.	16G	.	16d 16B	.	.	.
.	.	16GJ	.	16dJ 16B	.	.	.
8GG	.	16GL	.	16dL 16B	.	8r	.
.	.	16G	.	16d 16B	.	.	.
8GGJ	.	16G	.	16d 16B	.	8dd	.
.	.	16GJ	.	16dJ 16B	.	.	.
8GGL	.	16GL	.	16dL 16B	.	8bL	.
.	.	16G	.	16d 16B	.	.	.
8GG	.	16G	.	16d 16B	.	8g	.
.	.	16GJ	.	16dJ 16B	.	.	.
8GG	.	16GL	.	16dL 16B	.	8b	.
.	.	16G	.	16d 16B	.	.	.
8GGJ	.	16G	.	16d 16B	.	8ddJ	.
.	.	16GJ	.	16dJ 16B	.	.	.
=133	=133	=133	=133	=133	=133	=133	=133
8GGL	.	16GL	.	16dL 16B	.	8ggL	.
.	.	16G	.	16d 16B	.	.	.
8GG	.	16G	.	16d 16B	.	8dd	.
.	.	16GJ	.	16dJ 16B	.	.	.
8GG	.	16GL	.	16dL 16B	.	8gg	.
.	.	16G	.	16d 16B	.	.	.
8GGJ	.	16G	.	16d 16B	.	8bbJ	.
.	.	16GJ	.	16dJ 16B	.	.	.
8GGL	.	16GL	.	16dL 16B	.	4ddd	.
.	.	16G	.	16d 16B	.	.	.
8GG	.	16G	.	16d 16B	.	.	.
.	.	16GJ	.	16dJ 16B	.	.	.
8GG	.	16AL	.	16dL 16c	.	4ff#y 4a 4d	.
.	.	16A	.	16d 16c	.	.	.
8GGJ	.	16A	.	16d 16c	.	.	.
.	.	16AJ	.	16dJ 16c	.	.	.
!!LO:LB
=134	=134	=134	=134	=134	=134	=134	=134
8GGL	.	16GL	.	16dL 16B	.	4gg 4b 4d	.
.	.	16G	.	16d 16B	.	.	.
8GG	.	16G	.	16d 16B	.	.	.
.	.	16GJ	.	16dJ 16B	.	.	.
8GG	.	16GL	.	16dL 16B	.	8r	.
.	.	16G	.	16d 16B	.	.	.
8GGJ	.	16G	.	16d 16B	.	8dd	.
.	.	16GJ	.	16dJ 16B	.	.	.
8GGL	.	16GL	.	16dL 16B	.	8bL	.
.	.	16G	.	16d 16B	.	.	.
8GG	.	16G	.	16d 16B	.	8g	.
.	.	16GJ	.	16dJ 16B	.	.	.
8GG	.	16GL	.	16dL 16B	.	8b	.
.	.	16G	.	16d 16B	.	.	.
8GGJ	.	16G	.	16d 16B	.	8ddJ	.
.	.	16GJ	.	16dJ 16B	.	.	.
=135	=135	=135	=135	=135	=135	=135	=135
8GGL	.	16GL	.	16dL 16B	.	8ggL	.
.	.	16G	.	16d 16B	.	.	.
8GG	.	16G	.	16d 16B	.	8dd	.
.	.	16GJ	.	16dJ 16B	.	.	.
8GG	.	16GL	.	16dL 16B	.	8gg	.
.	.	16G	.	16d 16B	.	.	.
8GGJ	.	16G	.	16d 16B	.	8bbJ	.
.	.	16GJ	.	16dJ 16B	.	.	.
8GGL	.	16GL	.	16dL 16B	.	4ddd	.
.	.	16G	.	16d 16B	.	.	.
8GG	.	16G	.	16d 16B	.	.	.
.	.	16GJ	.	16dJ 16B	.	.	.
8GG	.	16AL	.	16dL 16c	.	4ff#y 4a 4d	.
.	.	16A	.	16d 16c	.	.	.
8GGJ	.	16A	.	16d 16c	.	.	.
.	.	16AJ	.	16dJ 16c	.	.	.
=136	=136	=136	=136	=136	=136	=136	=136
8GGL	.	8GL	.	4d 4B	.	4gg 4b 4d	.
8BB	.	8B	.	.	.	.	.
8D	.	8d	.	4r	.	4r	.
8GJ	.	8gJ	.	.	.	.	.
8BL	.	8bL	.	4gg 4b 4d	.	4gg 4b 4d	.
8G	.	8g	.	.	.	.	.
8d	.	8dd	.	4r	.	4r	.
8BJ	.	8bJ	.	.	.	.	.
=137	=137	=137	=137	=137	=137	=137	=137
4G	.	4g	.	4gg 4b 4d	.	4gg 4b 4d	.
8.GGL	.	8.GL	.	8.gL 8.G	.	8.gL 8.G	.
16GGJ	.	16GJ	.	16gJ 16G	.	16gJ 16G	.
4GG	.	4G	.	4g 4G	.	4g 4G	.
4r	.	4r	.	4r	.	4r	.
=:|!	=:|!	=:|!	=:|!	=:|!	=:|!	=:|!	=:|!
*-	*-	*-	*-	*-	*-	*-	*-
!!!RDF**kern: < = below
